X:1
T:Have Courage to Say No!
T:Horatio Richmond Palmer, 1887
T:Have Courage to Say No!
T:Public Domain
T:Public Domain
T:Public Domain
C:Horatio Richmond Palmer, 1887
Z:Public Domain
%%score ( 1 2 ) ( 3 4 )
L:1/8
M:6/8
K:G
V:1 treble 
V:2 treble 
V:3 bass 
V:4 bass 
V:1
 D | D<GG G>FG | [DB]3 d2 d | d>AA AGA | [DGB]3- [DGB]2 D | D>GG G>FG | [DB]3 d2 B | A<AA AB^c | %8
w: 1.~You’re|start- ing, my boy, on life’s|A- long the|high- way of life; You’ll meet|thou- * sand|temp- ta- tions— Each ci- ty|vil is rife.|world is a stage of ex-|
w: 2.~In|cour- age, my boy, lies your|When you the|jour- ney be- gin, Your trust|heav- * en-|ly Fa- ther Will keep you|ed from sin.|ta- tions will go on in-|
w: 3.~Be|care- ful in choos- ing com-|Seek on- ly|brave and the true, And stand|friends * when|in tri- al, Ne’er chang- ing|for the new;|when by false friends you are|
 [DFd]3- [DFd]2 D | c>cc cdc | [DGB]3 d2 B | c>cc A<dc | [DGB]3- [DGB]2 B | B>BB B>BB | %14
w: There’s * dan-|ger wher- ev- er you go;|you are tempt-|to weak- ness, Have cour- age,|to * say|No! Have cour- age, my boy,|
w: As * streams|from a riv- u- let flow;|you’d be true|your man- hood, Have cour- age,|to * say|No! * * * * *|
w: The * taste|of the wine cup to know,|ness, with pa-|and kind- ness, Have cour- age,|to * say|No! * * * * *|
 [EGB]3 B2 B | [Ec]<[Ec]E F>ED | [DG]3- [DG]2 ||"^Refrain" D | [DG]<[DG][DG] [DG]>[DF][DG] | %19
w: No! Have cour-|my boy, to say No! Have|my *|boy,|cour- age, my boy, Have cour-|
w: |||||
w: |||||
 [GB]3- [GB]2 D | [GB]<[GB][GB] [GB]>[FA][GB] | [Bd]3- [Bd]2 [Gd] | [Fd]<[Fe][FA] [FA]2 [Fd] | %23
w: age, * my|to say No! * * *|||
w: ||||
w: ||||
 [Gd]<[Ge][GB] [GB]2 [Gd] | [Fd]<[Fe][Fd] [Fc]>[GB][FA] | G3- G2 |] %26
w: |||
w: |||
w: |||
V:2
 x | D3 D3 | x3 D3 | [DF]2 [DF]3 x | x6 | D3 D3 | x3 D3 | [DF]3 [EG]3 | x6 | [DFA]3 [DFA]3 | %10
w: |jour- ney,|grand|with a||with e-|This|cite- ment,||But if|
w: |safe- ty,|long|in a||un- spott-|Temp-|creas- ing,||But if|
w: |pan- ions,|the|by your||the old|And|tempt- ed||With firm-|
 x3 [DG]3 | [DFA]3 [DF]3 | x6 | [^DF]3 [DF]3 | x3 [EG]3 | x2 E C3 | x5 || D | x6 | x5 D | x6 | x6 | %22
w: ed|my boy,||to say|age,|cour- age,||Have||boy,|||
w: to|my boy,|||||||||||
w: tience|my boy,|||||||||||
 x6 | x6 | x6 | G3- G2 |] %26
w: ||||
w: ||||
w: ||||
V:3
 z | [G,B,]3 [G,B,]3 | [G,B,]3 [G,B,]3 | D,3 D,3 | G,3- G,2 z | [G,B,]3 [G,B,]3 | [G,B,]3 [G,B,]3 | %7
w: |~ ~|~ ~|~ ~|~ *|~ ~|~ ~|
 A,3 A,,3 | [D,A,]3- [D,A,]2 z | D,3 D,3 | [G,B,]3 [G,B,]3 | D,3 D,3 | G,3- G,2 z | %13
w: ~ ~|~ *|~ ~|~ ~|~ ~|~ *|
 [B,,B,]3 [B,,B,]3 | E,3 E,3 | [C,G,]<[C,G,][C,A,] A,>G,A, | [G,,B,]3- [G,,B,]2 || [G,B,] | %18
w: ~ ~|~ ~|~ ~ ~ ~ ~ ~|~ *|~|
 [G,B,]<[G,B,][G,B,] [G,B,]>[G,A,][G,B,] | G,2 G, [G,D]2 [G,B,] | %20
w: ~ ~ ~ ~ ~ ~|say No! ~ ~|
 [G,B,]<[G,D][G,D] [G,D]>[G,D][G,D] | G,2 G, G,2 [G,B,] | [D,A,]<[D,A,][D,D] [D,D]2 [D,A,] | %23
w: ~ ~ ~ ~ ~ say|No! * * *||
 [G,B,]<[G,C][G,D] [G,D]2 [G,B,] | [D,A,]<[D,A,][D,A,] [D,A,]>[D,B,][D,C] | %25
w: ||
 [G,,G,B,]3- [G,,G,B,]2 |] %26
w: |
V:4
 x | x6 | x6 | x6 | x6 | x6 | x6 | x6 | x6 | x6 | x6 | x6 | x6 | x6 | x6 | x3 D,3 | x5 || x | x6 | %19
w: |||||||||||||||~||||
 D3 x3 | x6 | G,2 G, G,2 x | x6 | x6 | x6 | x5 |] %26
w: ~|||||||

